X: 1673
T: the Glen Hornpipe   #2
R: hornpipe, reel
%S: s:2 b:10(5+5)
B: O'Neill's 1850 #1673
Z: Compacted via repeats and multiple endings [JC]
O: Fielding
M: 4/4
L: 1/8
K: D
(3ABc |: {e}d>cd>f A>BA>G | F>Ad>f a2g>f | (3gbg e>g (3faf d>f |[1,3 (3ege c>e d>cB>c :|[2,4 (3efe (3ABc d2 :|
|: Bc |: d>gf>g b>gf>g | B>dc>d g>dc>d | e>dc>d a>dc>d | e>dc>d [1,3 b>gf>g :|[2,4 g2 :|
